img/splash.svg

<svg width="128" height="655" viewBox="0 0 128 655" fill="none" xmlns="http://www.w3.org/2000/svg">
<path fill-rule="evenodd" clip-rule="evenodd" d="M323.088 24.3681C391.238 7.40525 466.732 38.2578 519.647 84.4336C569.195 127.672 566.593 202.211 594.902 261.568C626.331 327.464 710.768 379.555 694.328 450.688C677.95 521.549 578.855 530.296 522.242 575.951C466.714 620.731 437.876 715.657 366.544 715.025C294.233 714.385 268.852 614.467 209.482 573.18C154.196 534.732 61.7562 544.997 33.8938 483.69C6.15477 422.656 53.538 354.085 82.4091 293.577C106.253 243.605 147.704 209.105 184.608 167.827C230.017 117.034 256.974 40.8242 323.088 24.3681Z" fill="#FFCB47"/>
</svg>

<svg width="128" height="655" fill="none" xmlns="http://www.w3.org/2000/svg"><path fill-rule="evenodd" clip-rule="evenodd" d="M323.088 24.368c68.15-16.963 143.644 13.89 196.559 60.066 49.548 43.238 46.946 117.777 75.255 177.134 31.429 65.896 115.866 117.987 99.426 189.12-16.378 70.861-115.473 79.608-172.086 125.263-55.528 44.78-84.366 139.706-155.698 139.074-72.311-.64-97.692-100.558-157.062-141.845-55.286-38.448-147.726-28.183-175.588-89.49-27.74-61.034 19.644-129.605 48.515-190.113 23.844-49.972 65.295-84.472 102.199-125.75 45.409-50.793 72.366-127.003 138.48-143.459z" fill="#FFCB47"/></svg>
